src/icons/svg/Users.svg

<svg width="24" height="24" viewBox="0 0 24 24" fill="none" xmlns="http://www.w3.org/2000/svg">
<path d="M21.622 14.8C21.222 14.444 18.578 13.756 17.2 13.422C18.489 12.2 19.244 10.133 19.244 8.17801C19.244 5.13401 18.4 2.66701 14.622 2.66701C13.422 2.66701 12.533 2.91101 11.844 3.35601C12.777 3.42301 13.511 3.64501 14.088 4.02301C14.244 4.00101 14.421 4.00101 14.621 4.00101C17.377 4.00101 17.91 5.89001 17.91 8.24501C17.91 9.95601 17.243 11.823 16.088 12.712V13.556L16.266 14.156C17.644 14.512 19.955 15.134 20.51 15.378C21.288 15.734 21.554 17.489 20.51 17.845H18.488C18.555 18.267 18.577 18.712 18.488 19.112C21.777 19.001 22.021 18.779 22.021 18.779C22.932 17.579 22.488 15.601 21.621 14.801L21.622 14.8ZM11.867 15.4C13.178 14.111 13.956 11.911 13.956 9.82201C13.956 6.60001 13.112 4.00001 9.33397 4.00001C5.55597 4.00001 4.71197 6.60001 4.71197 9.82201C4.71197 11.911 5.48997 14.133 6.80097 15.422C5.42297 15.755 2.73397 16.444 2.33397 16.8C1.44497 17.6 1.02297 19.578 1.88997 20.756C1.88997 20.756 2.40097 21.156 9.35697 21.156C16.335 21.156 16.757 20.756 16.757 20.756C17.624 19.578 17.201 17.6 16.313 16.8C15.957 16.422 13.224 15.733 11.869 15.4H11.867ZM15.244 19.822L9.24397 19.8L3.39997 19.822C2.22197 19.4 2.82197 17.689 3.59997 17.355C4.19997 17.088 6.51097 16.399 7.68897 16.066L7.84497 15.533V14.644C6.68897 13.688 6.02297 11.688 6.02297 9.86601C6.02297 7.35501 6.57897 5.33301 9.31197 5.33301C12.068 5.33301 12.601 7.35501 12.601 9.86601C12.601 11.688 11.934 13.688 10.779 14.644V15.533L10.957 16.133C12.335 16.489 14.646 17.111 15.201 17.355C16.023 17.688 16.29 19.466 15.245 19.822H15.244Z" fill="#1C2125"/>
</svg>

<!-- Generated by IcoMoon.io -->
<svg version="1.1" xmlns="http://www.w3.org/2000/svg" width="24" height="24" viewBox="0 0 24 24">
<title>users</title>
<path fill="#444" d="M21.622 14.8c-0.4-0.356-3.044-1.044-4.422-1.378 1.289-1.222 2.044-3.289 2.044-5.244 0-3.044-0.844-5.511-4.622-5.511-1.2 0-2.089 0.244-2.778 0.689 0.933 0.067 1.667 0.289 2.244 0.667 0.156-0.022 0.333-0.022 0.533-0.022 2.756 0 3.289 1.889 3.289 4.244 0 1.711-0.667 3.578-1.822 4.467v0.844l0.178 0.6c1.378 0.356 3.689 0.978 4.244 1.222 0.778 0.356 1.044 2.111 0 2.467h-2.022c0.067 0.422 0.089 0.867 0 1.267 3.289-0.111 3.533-0.333 3.533-0.333 0.911-1.2 0.467-3.178-0.4-3.978zM11.867 15.4c1.311-1.289 2.089-3.489 2.089-5.578 0-3.222-0.844-5.822-4.622-5.822s-4.622 2.6-4.622 5.822c0 2.089 0.778 4.311 2.089 5.6-1.378 0.333-4.067 1.022-4.467 1.378-0.889 0.8-1.311 2.778-0.444 3.956 0 0 0.511 0.4 7.467 0.4 6.978 0 7.4-0.4 7.4-0.4 0.867-1.178 0.444-3.156-0.444-3.956-0.356-0.378-3.089-1.067-4.444-1.4zM15.244 19.822l-6-0.022c0 0-5.844 0.022-5.844 0.022-1.178-0.422-0.578-2.133 0.2-2.467 0.6-0.267 2.911-0.956 4.089-1.289l0.156-0.533v-0.889c-1.156-0.956-1.822-2.956-1.822-4.778 0-2.511 0.556-4.533 3.289-4.533 2.756 0 3.289 2.022 3.289 4.533 0 1.822-0.667 3.822-1.822 4.778v0.889l0.178 0.6c1.378 0.356 3.689 0.978 4.244 1.222 0.822 0.333 1.089 2.111 0.044 2.467z"></path>
</svg>
